X: 09007
T: ARTHUR'S JIG
C: Bob McQuillen 24 Oct 92
B: Bob's Note Book 9 #7
R: jig
Z: 2019 John Chambers <jc:trillian.mit.edu>
N: In the NEFFA 2019 Bob McQuillen Slow Jam set.
M: 6/8
L: 1/8
K: A
E \
| ABc d2f | ece a2e | def ecA | cec BAF |
| ABc def | gab a2e | def ecB | cAA A2 :|
|: e \
| fdf fga | efe e2e | fga ecA | cBB Bce |
| f2f fga | efe e2e | agf edc | B3 A2 :|
%%begintext align
%% Arthur and Jean Tufts of
%% Exeter, NH, could easily have taken the prize for "New
%% Hampshire's Greatest Dance Enthusiasts." They really loved the dance
%% scene during the Ralph Page years, and Arthur got to be a very
%% respectable caller by following Ralph's example. His dear Jean is no
%% longer with us, but I still have the pleasure of seeing Arthur
%% occasionally at various dance functions. Many blessings
%% on you, old friend!
%%endtext

%%sep 1 1 500

%%sep 1 1 500

